X:1
T:Title
%%score 1 2 3
L:1/8
M:3/2
K:C
V:1 treble nm="Part_1"
V:2 treble-8 nm="Part_2"
V:3 treble-8 nm="Part_3"
V:1
 D12- | D8 E2 F2 | G6 G2 F2 E2 | G4 z4 G4 | G8 F4 | E8 D4 | C8 E2 G2 | A8 G4 | F6 E2 F2 D2 | %9
 F4 z4 z4 | A4 _B6 A2 | G4 F6 D2 | D4 z2 D2 F2 G2 | A2 B2 c6 B2 | c2 A4 G2 F2 E2 | G4 z4 z4 | %16
 F2 G2 A4 G4 | A6 G2 A2 F2 | E4 F2 G2 A4 | G4 A2 _B2 c4- | c2 _B2 c2 A2 (3B2 A2 G2 | A4 z4 B4 | %22
 c2 B2 A2 G2 A4 | F2 G2 A2 B2 c4 | B4 A4 G4 | A4 B4 A4 | G2 A2 B2 c2 d4- | d2 c2 B4 c4 | %28
 z2 A2 G2 A2 G2 F2 | E4 D4 C4 | z4 G6 A2 | _B4 c2 B4 G2 | A2 c4 B2 c4- | c2 B2 c2 A2 G4 | %34
 z2 A4 B2 c4 | A6 G2 A2 F2 | E4 F4 G4 | A4 z4 F2 E2 | F4 A4 G4 | A2 _B2 c2 d2 c4 | z4 _B2 A2 G4 | %41
 F8 E4 | D4 z4 A4 | B2 c2 c2 B2 c2 A2 | G2 G2 A2 G2 F2 E2 | G8 A4 | G4 A6 _B2 | c4 _B4 G2 A2 | %48
 G2 F2 E4 z2 F2 | G2 A2 F4 z4 | A4 B4 c2 B2 | A2 G2 A4 G4 | z2 A2 _B4 G4 | F4 G4 A4 | %54
 =B4 z2 B2 c4 | A4 G6 A2 | _B2 A4 G2 F4 | z2 G2 C4 D2 E2 | F4 G4 z4 | c4 A4 G4 | F2 E2 F4 z4 | %61
 G6 A2 G2 F2 | A4 B8 | c12 |] %64
V:2
[K:F] z12 | z12 | z12 | G12- | G8 A2 B2 | c6 c2 B2 A2 | c4 z4 c4 | c8 B4 | A8 G4 | F8 A2 c2 | %10
 d8 c4 | B6 A2 B2 G2 | B4 z4 z4 | d4 e6 d2 | c4 B6 G2 | G4 z2 G2 B2 c2 | d2 e2 f6 e2 | %17
 f2 d4 c2 B2 A2 | c4 z4 z4 | B2 c2 d4 c4 | d6 c2 d2 B2 | A4 B2 c2 d4 | c4 d2 e2 f4- | %23
 f2 e2 f2 d2 (3e2 d2 c2 | d4 z4 e4 | f2 e2 d2 c2 d4 | B2 c2 d2 e2 f4 | e4 d4 c4 | d4 e4 d4 | %29
 c2 d2 e2 f2 g4- | g2 f2 e4 f4 | z2 d2 c2 d2 c2 B2 | A4 G4 F4 | z4 c6 d2 | e4 f2 e4 c2 | %35
 d2 f4 e2 f4- | f2 e2 f2 d2 c4 | z2 d4 e2 f4 | d6 c2 d2 B2 | A4 B4 c4 | d4 z4 B2 A2 | B4 d4 c4 | %42
 d2 e2 f2 g2 f4 | z4 e2 d2 c4 | B8 A4 | G4 z4 d4 | e2 f2 f2 e2 f2 d2 | c2 c2 d2 c2 B2 A2 | c8 d4 | %49
 c4 d6 e2 | f4 e4 c2 d2 | c2 B2 A4 z2 B2 | c2 d2 B4 z4 | d4 e4 f2 e2 | d2 c2 d4 c4 | z2 d2 _e4 c4 | %56
 B4 c4 d4 | =e4 z2 e2 f4 | d4 c6 d2 | _e2 d4 c2 B4 | z2 c2 F4 G2 A2 | B4 c4 z4 | f4 d8 | c12 |] %64
V:3
[K:F] D12 | G4 _B2 c2 A4 | G12 | d12 | d12 | A8 G4 | F8 z4 | F8 _B2 d2 | c8 B4 | c8 A4 | f8 e4 | %11
 d8 d2 B2 | G4 G8 | z2 d2 A4 G4 | g2 e2 d6 c2 | d4 B4 G4 | B4 d4 c4 | d8 z4 | z4 B4 A4 | %19
 G4 z2 f2 g4 | f6 e2 f2 d2 | e4 d4 G2 A2 | F4 z4 F4 | A4 G6 A2 | G4 d4 c4 | d2 g2 f2 e2 f4 | %26
 g4 f2 e2 d4 | g6 f2 g4 | z2 f2 c4 G4 | g4 z4 e4 | d4 c4 F4 | G4 A2 B2 c2 d2 | c4 d2 e2 f4- | %33
 f4 F4 z2 G2 | c4 F2 c2 G2 F2- | F2 F2 A4 F4 | A4 B4 c4 | F12 | f2 d2 f4 d4 | e2 f2 d4 z4 | %40
 G8 d2 e2 | d6 B4 A2 | G2 z2 d2 e2 f2 g2 | d2 c4 G2 g2 e2 | d8 c2 c2 | d4 G4 z4 | z4 d2 c2 d2 f2 | %47
 g4 f4 d4 | e4 A4 B4 | z4 B4 c4 | d4 g6 f2- | f2 d2 z2 e2 c2 d2 | e2 f2 f4 e4 | z4 c4 d4 | %54
 z2 g2 f2 f2 g4 | f4 c4 A4 | G4 A4 B4 | c4 g4 a4 | z2 f2 e2 e2 f2 f2 | g2 f4 e2 d4 | %60
 c2 A2 c2 c2 g4 | z4 e2 f2 e2 d2 | c2 F2 G8 | g12 |] %64

